packages/match-icons/product/svg/programmable-wireless.svg

<svg fill="none" height="32" viewBox="0 0 32 32" width="32" xmlns="http://www.w3.org/2000/svg" xmlns:xlink="http://www.w3.org/1999/xlink"><clipPath id="a"><path d="m0 0h32v32h-32z"/></clipPath><g clip-path="url(#a)" fill="#394762"><path d="m21 10h-10c-.7956 0-1.55871.3161-2.12132.8787s-.87868 1.3257-.87868 2.1213v12c0 .7956.31607 1.5587.87868 2.1213s1.32572.8787 2.12132.8787h10c.7956 0 1.5587-.3161 2.1213-.8787s.8787-1.3257.8787-2.1213v-12c0-.7956-.3161-1.5587-.8787-2.1213s-1.3257-.8787-2.1213-.8787zm1 3v6.35l-7.35-7.35h6.35c.2652 0 .5196.1054.7071.2929s.2929.4419.2929.7071zm-12 12v-7.39l8.39 8.39h-7.39c-.2652 0-.5196-.1054-.7071-.2929s-.2929-.4419-.2929-.7071zm11.19 1-11.19-11.22v-1.78c0-.2652.1054-.5196.2929-.7071s.4419-.2929.7071-.2929h.83l10.17 10.17v2.83c.0043.2354-.0746.4647-.2228.6476-.1481.1829-.3561.3077-.5872.3524z"/><path d="m27.12 4.07002-3.24-3.24c-.5702-.544479-1.3317-.8426402-2.12-.83000012h-15.26001c-.6588.0025777-1.29017.26406212-1.75788.72802912-.46771.463971-.73425 1.093221-.74212 1.751971v26.99998c-.00264.33.06007.6572.18453.9629.12445.3056.30818.5836.54059.8178.23241.2343.5089.4202.81353.5471.30462.1269.63135.1922.96135.1922h19.00001c.663 0 1.2989-.2634 1.7678-.7322.4688-.4689.7322-1.1047.7322-1.7678v-23.29998c.001-.39552-.0763-.78732-.2273-1.15287s-.3729-.69763-.6527-.97713zm-1.12 25.42998c0 .1326-.0527.2598-.1465.3536-.0937.0937-.2209.1464-.3535.1464h-19.00001c-.13261 0-.25979-.0527-.35355-.1464-.09377-.0938-.14645-.221-.14645-.3536v-26.99998c0-.13261.05268-.25979.14645-.35355.09376-.09377.22094-.14645.35355-.14645h15.26001c.1323.00055.2632.02735.3851.07885.1218.05149.2323.12666.3249.22115l3.24 3.24c.1753.17629.2787.4116.29.66z"/></g></svg>

<svg width="32" height="32" viewBox="0 0 32 32" fill="none" xmlns="http://www.w3.org/2000/svg">
<g clip-path="url(#clip0)">
<path d="M21 10H11C10.2044 10 9.44129 10.3161 8.87868 10.8787C8.31607 11.4413 8 12.2044 8 13V25C8 25.7956 8.31607 26.5587 8.87868 27.1213C9.44129 27.6839 10.2044 28 11 28H21C21.7956 28 22.5587 27.6839 23.1213 27.1213C23.6839 26.5587 24 25.7956 24 25V13C24 12.2044 23.6839 11.4413 23.1213 10.8787C22.5587 10.3161 21.7956 10 21 10ZM22 13V19.35L14.65 12H21C21.2652 12 21.5196 12.1054 21.7071 12.2929C21.8946 12.4804 22 12.7348 22 13ZM10 25V17.61L18.39 26H11C10.7348 26 10.4804 25.8946 10.2929 25.7071C10.1054 25.5196 10 25.2652 10 25ZM21.19 26L10 14.78V13C10 12.7348 10.1054 12.4804 10.2929 12.2929C10.4804 12.1054 10.7348 12 11 12H11.83L22 22.17V25C22.0043 25.2354 21.9254 25.4647 21.7772 25.6476C21.6291 25.8305 21.4211 25.9553 21.19 26V26Z" fill="#394762"/>
<path d="M27.12 4.07002L23.88 0.83002C23.3098 0.285541 22.5483 -0.0126202 21.76 1.98783e-05V1.98783e-05H6.49999C5.84119 0.00259758 5.20982 0.264082 4.74211 0.728049C4.2744 1.19202 4.00786 1.82127 3.99999 2.48002V29.48C3.99735 29.81 4.06006 30.1372 4.18452 30.4429C4.30897 30.7485 4.4927 31.0265 4.72511 31.2607C4.95752 31.495 5.23401 31.6809 5.53864 31.8078C5.84326 31.9347 6.16999 32 6.49999 32H25.5C26.163 32 26.7989 31.7366 27.2678 31.2678C27.7366 30.7989 28 30.1631 28 29.5V6.20002C28.001 5.8045 27.9237 5.4127 27.7727 5.04715C27.6217 4.6816 27.3998 4.34952 27.12 4.07002V4.07002ZM26 29.5C26 29.6326 25.9473 29.7598 25.8535 29.8536C25.7598 29.9473 25.6326 30 25.5 30H6.49999C6.36738 30 6.2402 29.9473 6.14644 29.8536C6.05267 29.7598 5.99999 29.6326 5.99999 29.5V2.50002C5.99999 2.36741 6.05267 2.24023 6.14644 2.14647C6.2402 2.0527 6.36738 2.00002 6.49999 2.00002H21.76C21.8923 2.00057 22.0232 2.02737 22.1451 2.07887C22.2669 2.13036 22.3774 2.20553 22.47 2.30002L25.71 5.54002C25.8853 5.71631 25.9887 5.95162 26 6.20002V29.5Z" fill="#394762"/>
</g>
<defs>
<clipPath id="clip0">
<rect width="32" height="32" fill="white"/>
</clipPath>
</defs>
</svg>
